src/assets/filled/NoteSquare.svg

<svg width="24" height="24" viewBox="0 0 24 24"  xmlns="http://www.w3.org/2000/svg">
<path d="M21.6199 12.1L20.9999 11.89L19.3299 11.34C18.7499 11.15 18.1599 11.22 17.7099 11.54C17.2699 11.87 17.0099 12.4 17.0099 13.02V17.81C16.6099 17.59 16.1599 17.45 15.6699 17.45C14.1299 17.45 12.8799 18.71 12.8799 20.25C12.8799 20.51 12.9199 20.76 12.9799 21C13.3099 22.19 14.3899 23.05 15.6699 23.05C17.1999 23.05 18.4399 21.83 18.4699 20.31V15.7C18.4899 15.7 18.4999 15.71 18.5199 15.72L20.7999 16.48C20.8399 16.49 20.8899 16.51 20.9299 16.51C21.1099 16.56 21.2699 16.58 21.4399 16.58C21.7999 16.58 22.1399 16.48 22.4199 16.27C22.8699 15.95 23.1199 15.42 23.1199 14.8V14.2C23.1199 13.29 22.4799 12.39 21.6199 12.1ZM15.6699 21.59C15.2099 21.59 14.8099 21.36 14.5699 21C14.4199 20.79 14.3399 20.53 14.3399 20.25C14.3399 19.52 14.9399 18.92 15.6699 18.92C16.4099 18.92 17.0099 19.52 17.0099 20.25C17.0099 20.48 16.9499 20.69 16.8499 20.87C16.6299 21.3 16.1799 21.59 15.6699 21.59Z" />
<path d="M23.1199 14.2V14.8C23.1199 15.42 22.8699 15.95 22.4199 16.27C22.1399 16.48 21.7999 16.58 21.4399 16.58C21.2699 16.58 21.1099 16.56 20.9299 16.51C20.8899 16.51 20.8399 16.49 20.7999 16.48L18.5199 15.72C18.4999 15.71 18.4899 15.7 18.4699 15.7V20.31C18.4399 21.83 17.1999 23.05 15.6699 23.05C14.3899 23.05 13.3099 22.19 12.9799 21C12.9199 20.76 12.8799 20.51 12.8799 20.25C12.8799 18.71 14.1299 17.45 15.6699 17.45C16.1599 17.45 16.6099 17.59 17.0099 17.81V13.02C17.0099 12.4 17.2699 11.87 17.7099 11.54C18.1599 11.22 18.7499 11.15 19.3299 11.34L20.9999 11.89L21.6199 12.1C22.4799 12.39 23.1199 13.29 23.1199 14.2Z" />
<path d="M21 7.52V9.62C21 9.96 20.67 10.2 20.34 10.09L19.8 9.91C18.75 9.58 17.68 9.72 16.81 10.34C15.98 10.96 15.51 11.94 15.51 13.02V15.47C15.51 15.74 15.3 15.96 15.03 16C12.97 16.31 11.38 18.1 11.38 20.25C11.38 20.3 11.38 20.35 11.38 20.4C11.39 20.71 11.16 21 10.84 21H7.52C4.07 21 2 18.94 2 15.48V7.52C2 4.06 4.07 2 7.52 2H15.48C18.93 2 21 4.06 21 7.52Z" />
</svg>

<?xml version="1.0" encoding="UTF-8"?>
<svg width="24" height="24" viewBox="0 0 24 24" xmlns="http://www.w3.org/2000/svg">
 <path d="m21.62 12.1-0.62-0.21-1.67-0.55c-0.58-0.19-1.17-0.12-1.62 0.2-0.44 0.33-0.7 0.86-0.7 1.48v4.79c-0.4-0.22-0.85-0.36-1.34-0.36-1.54 0-2.79 1.26-2.79 2.8 0 0.26 0.04 0.51 0.1 0.75 0.33 1.19 1.41 2.05 2.69 2.05 1.53 0 2.77-1.22 2.8-2.74v-4.61c0.02 0 0.03 0.01 0.05 0.02l2.28 0.76c0.04 0.01 0.09 0.03 0.13 0.03 0.18 0.05 0.34 0.07 0.51 0.07 0.36 0 0.7-0.1 0.98-0.31 0.45-0.32 0.7-0.85 0.7-1.47v-0.6c0-0.91-0.64-1.81-1.5-2.1zm-5.95 9.49c-0.46 0-0.86-0.23-1.1-0.59-0.15-0.21-0.23-0.47-0.23-0.75 0-0.73 0.6-1.33 1.33-1.33 0.74 0 1.34 0.6 1.34 1.33 0 0.23-0.06 0.44-0.16 0.62-0.22 0.43-0.67 0.72-1.18 0.72z"/>
 <path d="m23.12 14.2v0.6c0 0.62-0.25 1.15-0.7 1.47-0.28 0.21-0.62 0.31-0.98 0.31-0.17 0-0.33-0.02-0.51-0.07-0.04 0-0.09-0.02-0.13-0.03l-2.28-0.76c-0.02-0.01-0.03-0.02-0.05-0.02v4.61c-0.03 1.52-1.27 2.74-2.8 2.74-1.28 0-2.36-0.86-2.69-2.05-0.06-0.24-0.1-0.49-0.1-0.75 0-1.54 1.25-2.8 2.79-2.8 0.49 0 0.94 0.14 1.34 0.36v-4.79c0-0.62 0.26-1.15 0.7-1.48 0.45-0.32 1.04-0.39 1.62-0.2l1.67 0.55 0.62 0.21c0.86 0.29 1.5 1.19 1.5 2.1z"/>
 <path d="m21 7.52v2.1c0 0.34-0.33 0.58-0.66 0.47l-0.54-0.18c-1.05-0.33-2.12-0.19-2.99 0.43-0.83 0.62-1.3 1.6-1.3 2.68v2.45c0 0.27-0.21 0.49-0.48 0.53-2.06 0.31-3.65 2.1-3.65 4.25v0.15c0.01 0.31-0.22 0.6-0.54 0.6h-3.32c-3.45 0-5.52-2.06-5.52-5.52v-7.96c0-3.46 2.07-5.52 5.52-5.52h7.96c3.45 0 5.52 2.06 5.52 5.52z"/>
</svg>
